material/.icons/material/selection-ellipse.svg

<svg xmlns="http://www.w3.org/2000/svg" viewBox="0 0 24 24"><path d="M6.35 20.25l1.21-1.59c.86.57 1.83.98 2.87 1.19l-.27 1.98c-1.39-.26-2.66-.83-3.81-1.58m10.08-1.59l1.21 1.6c-1.14.77-2.41 1.31-3.8 1.57l-.27-1.98c1.04-.21 2-.62 2.86-1.19m3.41-5.07l1.99.27c-.26 1.39-.83 2.68-1.59 3.8l-1.59-1.21c.57-.85.98-1.82 1.19-2.86m-17.67.25l1.98-.27a8.09 8.09 0 001.19 2.87l-1.59 1.21C3 16.5 2.43 15.23 2.17 13.84m16.49-6.28l1.59-1.21a9.885 9.885 0 011.58 3.83l-1.98.27a8.11 8.11 0 00-1.19-2.89m-5.09-3.41l.27-1.98c1.39.26 2.66.83 3.81 1.58l-1.21 1.59a8.09 8.09 0 00-2.87-1.19M7.56 5.34L6.35 3.75C7.5 3 8.77 2.43 10.16 2.17l.27 1.98a8.09 8.09 0 00-2.87 1.19m-3.41 5.09l-1.98-.27C2.43 8.77 3 7.5 3.75 6.35l1.59 1.21a8.09 8.09 0 00-1.19 2.87z"/></svg>

<?xml version="1.0" encoding="UTF-8"?><!DOCTYPE svg PUBLIC "-//W3C//DTD SVG 1.1//EN" "http://www.w3.org/Graphics/SVG/1.1/DTD/svg11.dtd"><svg xmlns="http://www.w3.org/2000/svg" xmlns:xlink="http://www.w3.org/1999/xlink" version="1.1" id="mdi-selection-ellipse" width="24" height="24" viewBox="0 0 24 24"><path d="M6.35,20.25L7.56,18.66C8.42,19.23 9.39,19.64 10.43,19.85L10.16,21.83C8.77,21.57 7.5,21 6.35,20.25M16.43,18.66L17.64,20.26C16.5,21.03 15.23,21.57 13.84,21.83L13.57,19.85C14.61,19.64 15.57,19.23 16.43,18.66M19.84,13.59L21.83,13.86C21.57,15.25 21,16.54 20.24,17.66L18.65,16.45C19.22,15.6 19.63,14.63 19.84,13.59M2.17,13.84L4.15,13.57C4.36,14.61 4.77,15.58 5.34,16.44L3.75,17.65C3,16.5 2.43,15.23 2.17,13.84M18.66,7.56L20.25,6.35C21.03,7.5 21.58,8.78 21.83,10.18L19.85,10.45C19.64,9.4 19.23,8.42 18.66,7.56M13.57,4.15L13.84,2.17C15.23,2.43 16.5,3 17.65,3.75L16.44,5.34C15.58,4.77 14.61,4.36 13.57,4.15M7.56,5.34L6.35,3.75C7.5,3 8.77,2.43 10.16,2.17L10.43,4.15C9.39,4.36 8.42,4.77 7.56,5.34M4.15,10.43L2.17,10.16C2.43,8.77 3,7.5 3.75,6.35L5.34,7.56C4.77,8.42 4.36,9.39 4.15,10.43Z" /></svg>
